X:1
T:Yield Not to Temptation
T:Yield Not to Temptation
T:Horatio Richmond Palmer
T:Horatio Richmond Palmer, 1868
T:Public Domain Courtesy of the Cyber Hymnal™
T:Public Domain Courtesy of the Cyber Hymnal™
C:Horatio Richmond Palmer
Z:Public Domain
Z:Courtesy of the Cyber Hymnal™
%%score 1 ( 2 3 )
L:1/8
Q:1/4=115
M:6/8
K:Bb
V:1 treble 
V:2 bass 
V:3 bass 
V:1
 [Fd]3 [Fd][Ge][Fd] | [Fc]3 [Ec]3 | [GB]3 [GB][Ac][GB] | [_GA]6 x3 | [EG]3 [EG][FA][GB] | %5
w: 1.~Yield not to temp-|at- ion,|for yield- ing is|sin;|Each vic- tory will|
w: 2.~Shun e- vil com-|pan- ions,|bad lan- guage dis-|dain,|God’s name hold in|
w: 3.~To him that o’er-|com- eth,|God giv- eth a|crown;|Through faith we shall|
 [DF]3 [DB]3 | [Ac]3 [Ac][GB][Ac] | [Bd]6 | [Bd]3 [Bd][ce][Bd] | [Ac]3 [Ac]3 | [GB]3 [GB][Ac][GB] | %11
w: help you|some o- ther to|win;|Fight man- ful- ly|on- ward,|dark pas- sions sub-|
w: rev- erence,|nor take it in|vain;|Be thought- ful and|ea- rnest,|kind- heart- ed and|
w: con- quer,|though of- ten cast|down;|He who is our|Sav- ior|our strength will re-|
 [_GA]3- [GA]3 | [EG]3 [EG][FA][GB] | [DF]3 [DB]3 | [Fd]3 [Ec][DB][Ec] | [DB]6 || %16
w: due, *|Look ev- er to|Je- sus,|He’ll car- ry you|through.|
w: true, *|Look ev- er to|Je- sus,|He’ll car- ry you|through.|
w: new; *|Look ev- er to|Je- sus,|He’ll car- ry you|through.|
"^Refrain" [DF]2 [DF] [DF][EG][DF] | [DF]3 [DB]3 | [Fc]2 [Fc] [Fc][FB][Fc] | [Fd]3 [FB]3 | %20
w: ||||
w: Ask the Sav- ior to|help you,|Com- fort, strength- en and|keep you;|
w: ||||
 [GB]2 [GB] [GB][FA][EG] | [DF]3 [FB]3 | [Fd]2 [Fd] [Ec][DB][Ec] | [DB]6 |] %24
w: ||||
w: He is will- ing to|aid you,|He will car- ry you|through.|
w: ||||
V:2
 [B,,B,-]3 [B,,B,]3 | F,3- [F,,F,]3 | G,3- [G,,G,]3 | z3 x6 | E,3- [E,,E,]3 | B,,3- [B,,B,]3 | %6
 F,3- [F,,F,]3 | [B,,F,]6 | B,3- [B,,B,]3 | F,3- [F,,F,]3 | G,3- [G,,G,]3 | D,3- [D,,D,]3 | %12
 E,3- [E,,E,]3 | B,,3- [B,,B,]3 | F,3- [F,,F,]3 | [B,,F,]6 || %16
 [B,,B,]2 [B,,B,] [B,,B,][B,,B,][B,,B,] | [B,,B,]3 [B,,F,]3 | [F,A,]2 [F,A,] [F,A,][F,G,][F,A,] | %19
 B,3 [B,,D]3 | [E,E]2 [E,E] [E,E][E,E][E,B,] | [B,,B,]3 [B,,D]3 | %22
 [F,B,]2 [F,B,] [F,A,][F,G,][F,A,] | [B,,F,]6 |] %24
V:3
 x6 | x6 | x6 | D,6 D,,3 | x6 | x6 | x6 | x6 | x6 | x6 | x6 | x6 | x6 | x6 | x6 | x6 || x6 | x6 | %18
 x6 | B,3 x3 | x6 | x6 | x6 | x6 |] %24

